X: 1
T: The Cork Hornpipe
B: Kerr's Violin #4
S: handwritten MS by Barbara McOwen
R: hornpipe
Z: 2005 John Chambers <jc:trillian.mit.edu>
M: C|
L: 1/8
K: G
Bc \
| "G"dBGB d2gf | "C"egfe "G"d2d2 | "Am"cedc "G"BdcB | "Am"c2A2 "D7"A2Bc \
| "G"dBGB d2gf | "Em"egfe "D7"d2dc | "G"BdcB "D7"AcBA | "G"B2G2 G2 :|
gf \
| "G"g2G2 G2gf | "Em"e2E2 E2ed | "C"cedc "G"BdcB | "Am"c2A2 "D7"A2gf \
| "G"g2G2 G2gf | "Em"e2E2 "C"E2dc | "G"BdcB "D7"AcBA | "G"B2G2 G2  ||
gf \
| "G"g2G2 G2gf | "Em"e2E2 E2ed | "C"cedc "G"BdcB | "Am"c2A2 "D7"A2Bc \
| "G"dBGB d2gf | "Em"egfe "G"d2BG | "Am"FGAB "D7"cdef | "G"g2G2 G2 |]
